16x16/panel/indicator-stardate.svg

<svg xmlns="http://www.w3.org/2000/svg" width="16" height="16" version="1.1">
 <defs>
  <style id="current-color-scheme" type="text/css">
   .ColorScheme-Text { color:#323a41; } .ColorScheme-Highlight { color:#4285f4; } .ColorScheme-NeutralText { color:#ff9800; } .ColorScheme-PositiveText { color:#4caf50; } .ColorScheme-NegativeText { color:#f44336; }
  </style>
 </defs>
 <path style="fill:currentColor;fill-rule:evenodd" class="ColorScheme-Text" d="M 8,1 C 6,1 3,8 3,15 5,12 8,10 9,10 10,10 11.112,11 13.112,14 13,8 10,1 8,1 Z"/>
 <path style="fill:currentColor" class="ColorScheme-Text" d="M 8,2 A 6,6 0 0 0 7.219,2.0586 C 6.722,2.9089 6.182,4.1836 5.7031,5.6797 5.0349,7.768 4.5858,10.257 4.3086,12.721 A 6,6 0 0 0 4.3613,12.762 C 4.8082,12.226 5.2283,11.608 5.668,11.168 6.257,10.579 6.817,10.083 7.336,9.707 7.855,9.331 8.25,9 9,9 9.583,9 10.054,9.279 10.43,9.598 10.805,9.917 11.133,10.309 11.482,10.777 11.528,10.839 11.598,10.954 11.645,11.018 11.319,9.138 10.881,7.24 10.316,5.5703 9.833,4.1388 9.291,2.8959 8.793,2.0586 A 6,6 0 0 0 8,2 Z M 4.4941,3.1406 A 6,6 0 0 0 2,8 6,6 0 0 0 2.5078,10.398 C 2.8284,8.517 3.2793,6.688 3.7969,5.0703 4.0174,4.3811 4.2521,3.7411 4.4941,3.1406 Z M 11.537,3.1621 C 11.769,3.723 11.997,4.3 12.211,4.9316 12.76,6.556 13.237,8.374 13.578,10.193 A 6,6 0 0 0 14,8 6,6 0 0 0 11.537,3.1621 Z M 9,11 C 8.945,11 8.967,11.006 9.023,11.041 9.087,11.012 9.104,11 9,11 Z M 9.023,11.041 C 8.934,11.082 8.734,11.162 8.508,11.326 8.12,11.607 7.618,12.046 7.082,12.582 6.753,12.911 6.411,13.284 6.066,13.674 A 6,6 0 0 0 8,14 6,6 0 0 0 10.793,13.307 C 10.457,12.8 10.144,12.33 9.879,11.975 9.575,11.568 9.313,11.273 9.137,11.123 9.076,11.072 9.053,11.059 9.023,11.041 Z"/>
</svg>

<svg xmlns="http://www.w3.org/2000/svg" width="16" height="16"><defs><style id="current-color-scheme" type="text/css">.ColorScheme-Text{color:#d3dae3}</style></defs><path class="ColorScheme-Text" d="M8 1C6 1 3 8 3 15c2-3 5-5 6-5s2.112 1 4.112 4C13 8 10 1 8 1z" fill="currentColor" fill-rule="evenodd"/><path class="ColorScheme-Text" d="M8 2a6 6 0 0 0-.781.059c-.497.85-1.037 2.125-1.516 3.62-.668 2.089-1.117 4.578-1.394 7.042a6 6 0 0 0 .052.041c.447-.536.867-1.154 1.307-1.594.589-.589 1.149-1.085 1.668-1.461C7.855 9.331 8.25 9 9 9c.583 0 1.054.279 1.43.598.375.319.703.711 1.052 1.179.046.062.116.177.163.241-.326-1.88-.764-3.778-1.329-5.448C9.833 4.14 9.291 2.896 8.793 2.06A6 6 0 0 0 8 2zM4.494 3.14A6 6 0 0 0 2 8a6 6 0 0 0 .508 2.398A39.54 39.54 0 0 1 3.797 5.07c.22-.689.455-1.329.697-1.93zm7.043.022c.232.561.46 1.138.674 1.77a39.395 39.395 0 0 1 1.367 5.261A6 6 0 0 0 14 8a6 6 0 0 0-2.463-4.838zM9 11c-.055 0-.033.006.023.041C9.087 11.012 9.104 11 9 11zm.023.041c-.089.041-.289.121-.515.285-.388.281-.89.72-1.426 1.256a24.84 24.84 0 0 0-1.016 1.092A6 6 0 0 0 8 14a6 6 0 0 0 2.793-.693 31.499 31.499 0 0 0-.914-1.332c-.304-.407-.566-.702-.742-.852-.061-.051-.084-.064-.114-.082z" fill="currentColor"/></svg>
